TH2/docu_draw_arr.svg

<svg xmlns="http://www.w3.org/2000/svg" viewBox="0 0 1200 800" preserveAspectRatio="none" width="1200" height="800">
 <path d="M0,0H1200V800H0Z" style="fill: white;"></path>
 <g>
  <g transform="translate(120,80)">
   <path d="M0,0H960V640H0Z" style="fill: white; stroke: black; stroke-width: 1;"></path>
   <svg x="0" y="0" overflow="hidden" width="960" height="640" viewBox="0 0 960 640">
    <g>
     <path d="M24,432h1M24,400h1M24,368h1M24,336h1M72,400h1M72,368h1M72,336h1M71,304h1M72,272h1M72,240h1M120,496h1M119,432h1M119,400h2M119,368h3M119,336h3M119,304h2M119,272h1M119,240l2,1M119,208h1M120,144h1M167,464l2,-1M166,433l3,-1M165,400l5,-1M164,368l7,-1m-3,3l3,-3l-3,-3M164,336h7m-3,3l3,-3l-3,-3M165,304l7,1m-3,3l3,-3l-3,-3M165,272h7m-3,3l3,-3l-3,-3M165,240h5M167,208l3,1M167,176l1,1M216,528h1M216,497l1,-2M214,465l3,-2M213,433l6,-2m-2,4l2,-4l-4,-2M211,402l10,-3m-2,4l2,-4l-4,-2M209,369l13,-1m-3,3l3,-3l-3,-3M210,336h11m-3,3l3,-3l-3,-3M208,304h15m-3,3l3,-3l-3,-3M209,271l13,2m-3,3l3,-3l-3,-3M211,238l10,4m-4,2l4,-2l-2,-4M213,207l6,3m-4,1l4,-1l-1,-4M215,175l2,2M216,144v1M263,560l1,-1M264,528v-1M262,497l3,-2M262,466l4,-4M259,435l9,-5m-1,4l1,-4l-4,-1M255,403l17,-6m-2,4l2,-4l-4,-2M252,369l24,-2m-3,3l3,-3l-3,-3M251,336l27,-1m-3,3l3,-3l-3,-3M251,304h27m-3,3l3,-3l-3,-3M253,270l22,4m-3,2l3,-2l-2,-3M256,238l15,5m-4,2l4,-2l-2,-4M259,205l11,7m-4,1l4,-1l-1,-4M262,174l5,5M263,143l2,1M263,112h1M312,592v-1M312,560h1M312,529l1,-2M310,498l4,-4M307,467l10,-6m-1,4l1,-4l-4,-1M306,437l12,-11m0,4v-4h-4M299,406l25,-13m-1,4l1,-4l-4,-1M296,372l31,-8m-2,4l2,-4l-4,-2M290,337l45,-2m-3,3l3,-3l-3,-3M294,302l37,4m-3,3l3,-3l-3,-3M296,267l31,9m-4,2l4,-2l-2,-4M299,235l25,11m-4,2l4,-2l-2,-4M303,203l17,10m-4,1l4,-1l-1,-4M307,172l10,7m-4,1l4,-1l-1,-4M310,142l5,3M311,111l3,1M312,80v1M360,592v-1M360,560l-1,-1M359,529l2,-3M358,500l4,-8m1,4l-1,-4l-4,1M354,469l12,-10m0,4v-4h-4M352,440l17,-16m0,4v-4h-4M349,409l22,-18m0,4v-4h-4M343,375l34,-15m-2,4l2,-4l-4,-2M341,338l38,-4m-3,3l3,-3l-3,-3M340,300l40,9m-4,2l4,-2l-2,-4M342,266l36,11m-4,2l4,-2l-2,-4M347,233l26,14m-4,1l4,-1l-1,-4M352,200l16,17m-4,0h4v-4M356,170l8,13m-4,-1l4,1l1,-4M358,141l3,6m-4,-1l4,1l1,-4M360,110l1,3M360,79v2M408,561v-1M407,531l2,-5M406,501l5,-11m1,4l-1,-4l-4,1M406,471l4,-14m2,4l-2,-4l-4,2M400,441l16,-17m0,4v-4h-4M396,412l25,-24m0,4v-4h-4M395,377l27,-19m-1,4l1,-4l-4,-1M391,339l34,-6m-2,3l2,-3l-3,-2M392,302l31,5m-3,2l3,-2l-2,-3M393,263l30,19m-4,1l4,-1l-1,-4M399,228l19,24m-4,0h4v-4M403,197l11,21m-4,-1l4,1l1,-4M405,168l6,16m-4,-2l4,2l2,-4M407,140l2,9m-4,-2l4,2l2,-4M407,110l1,3M408,79l1,1M456,592v-1M456,561l1,-2M455,531l1,-6m2,3l-2,-3l-3,2M455,501l1,-10m3,3l-3,-3l-3,3M455,473l2,-17m3,3l-3,-3l-3,3M453,447l7,-29m2,4l-2,-4l-4,2M452,413l8,-26m2,4l-2,-4l-4,2M451,378l10,-21m1,4l-1,-4l-4,1M447,340l18,-7m-2,4l2,-4l-4,-2M447,299l17,11m-4,1l4,-1l-1,-4M450,262l12,20m-4,-1l4,1l1,-4M450,226l12,27m-4,-2l4,2l2,-4M452,195l8,25m-4,-2l4,2l2,-4M454,167l3,19m-3,-2l3,2l2,-3M454,139l4,10m-4,-2l4,2l2,-4M456,110v4M456,79v2M456,48l1,1M456,16v1M504,592v-1M504,561v-3M504,531v-6m3,3l-3,-3l-3,3M506,501l-3,-11m4,2l-4,-2l-2,4M504,473v-18m3,3l-3,-3l-3,3M506,443l-5,-21m4,2l-4,-2l-2,4M511,413l-15,-26m4,1l-4,-1l-1,4M508,381l-9,-26m4,2l-4,-2l-2,4M512,342l-16,-11m4,-1l-4,1l1,4M506,300l-5,9m-1,-4l1,4l4,-1M510,261l-13,22m-1,-4l1,4l4,-1M509,226l-11,27m-2,-4l2,4l4,-2M507,194l-5,27m-2,-3l2,3l3,-2M505,167l-3,19m-2,-3l2,3l3,-2M505,139l-1,10m-3,-3l3,3l3,-3M505,109l-2,6m-2,-4l2,4l4,-2M504,79v1M504,16v1M552,561v-2M553,530l-3,-4M554,501l-5,-10m4,1l-4,-1l-1,4M556,472l-7,-16m4,2l-4,-2l-2,4M558,442l-12,-20m4,1l-4,-1l-1,4M563,411l-21,-23m4,0h-4v4M565,378l-26,-20m4,-1l-4,1l1,4M570,341l-36,-10m4,-2l-4,2l2,4M573,300l-41,8m2,-4l-2,4l4,2M568,260l-32,24m1,-4l-1,4l4,1M566,229l-28,23m0,-4v4h4M560,198l-15,20m-1,-4l1,4l4,-1M556,168l-8,16m-1,-4l1,4l4,-1M555,139l-6,9m-1,-4l1,4l4,-1M552,110l-1,3M552,79v1M552,48v1M600,624v-1M600,592v-1M600,529l-1,-2M602,500l-4,-8m4,1l-4,-1l-1,4M605,471l-11,-13m4,0h-4v4M608,438l-16,-12m4,-1l-4,1l1,4M613,408l-27,-16m4,-1l-4,1l1,4M618,376l-36,-16m4,-2l-4,2l2,4M620,337l-41,-1m3,-3l-3,3l3,3M623,301l-46,7m3,-3l-3,3l3,3M617,265l-34,14m2,-4l-2,4l4,2M611,232l-22,16m1,-4l-1,4l4,1M608,201l-16,13m0,-4v4h4M604,170l-8,12m-1,-4l1,4l4,-1M602,141l-3,6m-1,-4l1,4l4,-1M600,111v1M600,79l-1,1M600,48v1M648,561l-1,-1M648,529l1,-2M648,498l-1,-3M652,468l-7,-8m4,0h-4v4M657,437l-17,-9m4,-1l-4,1l1,4M658,405l-20,-9m4,-2l-4,2l2,4M663,373l-31,-10m4,-2l-4,2l2,4M667,338l-38,-4m3,-3l-3,3l3,3M665,302l-34,4m3,-3l-3,3l3,3M663,268l-29,8m2,-4l-2,4l4,2M658,235l-19,11m1,-4l-1,4l4,1M655,203l-15,10m1,-4l-1,4l4,1M651,172l-7,7m0,-4v4h4M648,142l-1,4M649,111l-1,2M648,79l-1,1M696,561v-1M695,529l3,-2M692,497l9,-2m-2,4l2,-4l-4,-2M693,465l7,-3m-2,4l2,-4l-4,-2M700,434l-8,-4m4,-1l-4,1l1,4M703,404l-14,-7m4,-1l-4,1l1,4M706,370l-21,-5m4,-2l-4,2l2,4M710,335l-28,1m3,-3l-3,3l3,3M710,303l-28,1m3,-3l-3,3l3,3M707,270l-22,3m3,-3l-3,3l3,3M704,237l-17,6m2,-4l-2,4l4,2M701,205l-11,5m1,-4l-1,4l4,1M699,174l-6,3m1,-4l-1,4l4,1M697,143l-2,2M697,111l-2,1M744,592v-1M743,562l1,-3M739,532l10,-7m-1,4l1,-4l-4,-1M731,499l25,-6m-2,4l2,-4l-4,-2M732,462l24,3m-3,3l3,-3l-3,-3M742,429l5,5M748,400h-8m3,-3l-3,3l3,3M752,368l-16,-1m3,-3l-3,3l3,3M752,336l-15,1m3,-3l-3,3l3,3M750,304h-13m3,-3l-3,3l3,3M751,272h-14m3,-3l-3,3l3,3M748,238l-8,3m2,-4l-2,4l4,2M747,207l-6,3m1,-4l-1,4l4,1M745,175l-3,1M745,143l-2,1M744,112v1M792,593v-1M791,564l2,-8m2,4l-2,-4l-4,2M786,537l11,-18m1,4l-1,-4l-4,1M778,502l28,-12m-2,4l2,-4l-4,-2M779,458l26,11m-4,2l4,-2l-2,-4M787,423l9,17m-4,-1l4,1l1,-4M793,397l-3,7m-2,-4l2,4l4,-2M795,368l-7,1m3,-3l-3,3l3,3M795,336l-6,-1m3,-2l-3,2l2,3M795,304h-6m3,-3l-3,3l3,3M796,272h-7m3,-3l-3,3l3,3M795,240h-6m3,-3l-3,3l3,3M793,207l-3,1M793,176l-2,1M793,144h-1M840,593v-2M840,565v-11m3,3l-3,-3l-3,3M840,540l1,-24m3,3l-3,-3l-3,3M840,504l-1,-16m3,3l-3,-3l-3,3M840,456l-1,15m-3,-3l3,3l3,-3M841,420l-1,24m-3,-3l3,3l3,-3M841,395l-2,10m-2,-4l2,4l4,-2M841,367l-1,2M841,336h-2M841,304h-3M841,272h-1M841,240h-3M841,208h-2M840,176h-1M840,144h-1M888,593v-1M889,564l-2,-8m4,2l-4,-2l-2,4M894,537l-12,-18m4,1l-4,-1l-1,4M902,501l-28,-11m4,-2l-4,2l2,4M902,458l-28,12m2,-4l-2,4l4,2M894,423l-12,18m-1,-4l1,4l4,-1M889,396l-3,7m-2,-4l2,4l4,-2M889,368l-1,1M888,336h-1M888,304h-1M888,272h-1M888,240l-1,1M937,561l-2,-3M944,532l-16,-7m4,-2l-4,2l2,4M953,498l-34,-5m3,-3l-3,3l3,3M953,462l-33,5m3,-3l-3,3l3,3M942,428l-13,7m1,-4l-1,4l4,1M937,398l-2,3M937,368h-1M936,336h-1M937,304h-1M937,272h-2" style="fill: none; stroke: #000099; stroke-width: 1;"></path>
    </g>
   </svg>
   <g>
    <g transform="translate(0,640)">
     <path d="M0,0h960M0,-24v24m24,-12v12m24,-12v12m24,-12v12m24,-12v12m24,-24v24m24,-12v12m24,-12v12m24,-12v12m24,-12v12m24,-24v24m24,-12v12m24,-12v12m24,-12v12m24,-12v12m24,-24v24m24,-12v12m24,-12v12m24,-12v12m24,-12v12m24,-24v24m24,-12v12m24,-12v12m24,-12v12m24,-12v12m24,-24v24m24,-12v12m24,-12v12m24,-12v12m24,-12v12m24,-24v24m24,-12v12m24,-12v12m24,-12v12m24,-12v12m24,-24v24m24,-12v12m24,-12v12m24,-12v12m24,-12v12m24,-24v24" style="stroke: black; stroke-width: 1;"></path>
     <g font-family="Arial" font-size="28" space="preserve" fill="black" text-anchor="middle">
      <text dy=".8em" transform="translate(0,6)">
       -4
      </text>
      <text dy=".8em" transform="translate(120,6)">
       -3
      </text>
      <text dy=".8em" transform="translate(240,6)">
       -2
      </text>
      <text dy=".8em" transform="translate(360,6)">
       -1
      </text>
      <text dy=".8em" transform="translate(480,6)">
       0
      </text>
      <text dy=".8em" transform="translate(600,6)">
       1
      </text>
      <text dy=".8em" transform="translate(720,6)">
       2
      </text>
      <text dy=".8em" transform="translate(840,6)">
       3
      </text>
      <text dy=".8em" transform="translate(960,6)">
       4
      </text>
     </g>
    </g>
    <g>
     <path d="M0,0v640M36,640h-36m18,-16h-18m18,-16h-18m18,-16h-18m18,-16h-18m36,-16h-36m18,-16h-18m18,-16h-18m18,-16h-18m18,-16h-18m36,-16h-36m18,-16h-18m18,-16h-18m18,-16h-18m18,-16h-18m36,-16h-36m18,-16h-18m18,-16h-18m18,-16h-18m18,-16h-18m36,-16h-36m18,-16h-18m18,-16h-18m18,-16h-18m18,-16h-18m36,-16h-36m18,-16h-18m18,-16h-18m18,-16h-18m18,-16h-18m36,-16h-36m18,-16h-18m18,-16h-18m18,-16h-18m18,-16h-18m36,-16h-36m18,-16h-18m18,-16h-18m18,-16h-18m18,-16h-18m36,-16h-36" style="stroke: black; stroke-width: 1;"></path>
     <g font-family="Arial" font-size="28" space="preserve" fill="black" text-anchor="end">
      <text dy=".4em" transform="translate(-4,640)">
       -20
      </text>
      <text dy=".4em" transform="translate(-4,560)">
       -15
      </text>
      <text dy=".4em" transform="translate(-4,480)">
       -10
      </text>
      <text dy=".4em" transform="translate(-4,400)">
       -5
      </text>
      <text dy=".4em" transform="translate(-4,320)">
       0
      </text>
      <text dy=".4em" transform="translate(-4,240)">
       5
      </text>
      <text dy=".4em" transform="translate(-4,160)">
       10
      </text>
      <text dy=".4em" transform="translate(-4,80)">
       15
      </text>
      <text dy=".4em" transform="translate(-4)">
       20
      </text>
     </g>
    </g>
   </g>
  </g>
  <g transform="translate(936,52)" font-family="Arial" font-size="22" space="preserve" fill="black">
   <path d="M0,0H240V192H0Z" style="fill: white; stroke: black; stroke-width: 1;"></path>
   <text text-anchor="middle" dy=".4em" transform="translate(120,16)">
    harr
   </text>
   <text text-anchor="start" dy=".4em" transform="translate(12,48)">
    Entries
   </text>
   <text text-anchor="end" dy=".4em" transform="translate(228,48)">
    50000
   </text>
   <text text-anchor="start" dy=".4em" transform="translate(12,80)">
    Mean x
   </text>
   <text text-anchor="end" dy=".4em" transform="translate(228,80)">
    0.2623
   </text>
   <text text-anchor="start" dy=".4em" transform="translate(12,112)">
    Mean y
   </text>
   <text text-anchor="end" dy=".4em" transform="translate(228,112)">
    -0.9352
   </text>
   <text text-anchor="start" dy=".4em" transform="translate(12,144)">
    Std Dev x
   </text>
   <text text-anchor="end" dy=".4em" transform="translate(228,144)">
    1.282
   </text>
   <text text-anchor="start" dy=".4em" transform="translate(12,176)">
    Std Dev y
   </text>
   <text text-anchor="end" dy=".4em" transform="translate(228,176)">
    5.585
   </text>
   <path d="M0,32h240" style="stroke: black; stroke-width: 1;"></path>
  </g>
  <g transform="translate(372,4)" font-family="Arial" font-size="37" space="preserve">
   <text fill="black" text-anchor="middle" dy=".4em" transform="translate(229,26)">
    Option ARRow example
   </text>
  </g>
 </g>
</svg>

<svg xmlns="http://www.w3.org/2000/svg" viewBox="0 0 1200 800" preserveAspectRatio="none" width="1200" height="800">
 <path d="M0,0H1200V800H0Z" style="fill: white;"></path>
 <g>
  <g transform="translate(120,80)">
   <path d="M0,0H960V640H0Z" style="fill: white; stroke: black; stroke-width: 1;"></path>
   <svg x="0" y="0" overflow="hidden" width="960" height="640" viewBox="0 0 960 640">
    <g>
     <path d="M24,432h1M24,400h1M24,368h1M24,336h1M72,400h1M72,368h1M72,336h1M71,304h1M72,272h1M72,240h1M120,496h1M119,432h1M119,400h2M119,368h3M119,336h3M119,304h2M119,272h1M119,240l2,1M119,208h1M120,144h1M167,464l2,-1M166,433l3,-1M165,400l5,-1M164,368l7,-1m-3,3l3,-3l-3,-3M164,336h7m-3,3l3,-3l-3,-3M165,304l7,1m-3,3l3,-3l-3,-3M165,272h7m-3,3l3,-3l-3,-3M165,240h5M167,208l3,1M167,176l1,1M216,528h1M216,497l1,-2M214,465l3,-2M213,433l6,-2m-2,4l2,-4l-4,-2M211,402l10,-3m-2,4l2,-4l-4,-2M209,369l13,-1m-3,3l3,-3l-3,-3M210,336h11m-3,3l3,-3l-3,-3M208,304h15m-3,3l3,-3l-3,-3M209,271l13,2m-3,3l3,-3l-3,-3M211,238l10,4m-4,2l4,-2l-2,-4M213,207l6,3m-4,1l4,-1l-1,-4M215,175l2,2M216,144v1M263,560l1,-1M264,528v-1M262,497l3,-2M262,466l4,-4M259,435l9,-5m-1,4l1,-4l-4,-1M255,403l17,-6m-2,4l2,-4l-4,-2M252,369l24,-2m-3,3l3,-3l-3,-3M251,336l27,-1m-3,3l3,-3l-3,-3M251,304h27m-3,3l3,-3l-3,-3M253,270l22,4m-3,2l3,-2l-2,-3M256,238l15,5m-4,2l4,-2l-2,-4M259,205l11,7m-4,1l4,-1l-1,-4M262,174l5,5M263,143l2,1M263,112h1M312,592v-1M312,560h1M312,529l1,-2M310,498l4,-4M307,467l10,-6m-1,4l1,-4l-4,-1M306,437l12,-11m0,4v-4h-4M299,406l25,-13m-1,4l1,-4l-4,-1M296,372l31,-8m-2,4l2,-4l-4,-2M290,337l45,-2m-3,3l3,-3l-3,-3M294,302l37,4m-3,3l3,-3l-3,-3M296,267l31,9m-4,2l4,-2l-2,-4M299,235l25,11m-4,2l4,-2l-2,-4M303,203l17,10m-4,1l4,-1l-1,-4M307,172l10,7m-4,1l4,-1l-1,-4M310,142l5,3M311,111l3,1M312,80v1M360,592v-1M360,560l-1,-1M359,529l2,-3M358,500l4,-8m1,4l-1,-4l-4,1M354,469l12,-10m0,4v-4h-4M352,440l17,-16m0,4v-4h-4M349,409l22,-18m0,4v-4h-4M343,375l34,-15m-2,4l2,-4l-4,-2M341,338l38,-4m-3,3l3,-3l-3,-3M340,300l40,9m-4,2l4,-2l-2,-4M342,266l36,11m-4,2l4,-2l-2,-4M347,233l26,14m-4,1l4,-1l-1,-4M352,200l16,17m-4,0h4v-4M356,170l8,13m-4,-1l4,1l1,-4M358,141l3,6m-4,-1l4,1l1,-4M360,110l1,3M360,79v2M408,561v-1M407,531l2,-5M406,501l5,-11m1,4l-1,-4l-4,1M406,471l4,-14m2,4l-2,-4l-4,2M400,441l16,-17m0,4v-4h-4M396,412l25,-24m0,4v-4h-4M395,377l27,-19m-1,4l1,-4l-4,-1M391,339l34,-6m-2,3l2,-3l-3,-2M392,302l31,5m-3,2l3,-2l-2,-3M393,263l30,19m-4,1l4,-1l-1,-4M399,228l19,24m-4,0h4v-4M403,197l11,21m-4,-1l4,1l1,-4M405,168l6,16m-4,-2l4,2l2,-4M407,140l2,9m-4,-2l4,2l2,-4M407,110l1,3M408,79l1,1M456,592v-1M456,561l1,-2M455,531l1,-6m2,3l-2,-3l-3,2M455,501l1,-10m3,3l-3,-3l-3,3M455,473l2,-17m3,3l-3,-3l-3,3M453,447l7,-29m2,4l-2,-4l-4,2M452,413l8,-26m2,4l-2,-4l-4,2M451,378l10,-21m1,4l-1,-4l-4,1M447,340l18,-7m-2,4l2,-4l-4,-2M447,299l17,11m-4,1l4,-1l-1,-4M450,262l12,20m-4,-1l4,1l1,-4M450,226l12,27m-4,-2l4,2l2,-4M452,195l8,25m-4,-2l4,2l2,-4M454,167l3,19m-3,-2l3,2l2,-3M454,139l4,10m-4,-2l4,2l2,-4M456,110v4M456,79v2M456,48l1,1M456,16v1M504,592v-1M504,561v-3M504,531v-6m3,3l-3,-3l-3,3M506,501l-3,-11m4,2l-4,-2l-2,4M504,473v-18m3,3l-3,-3l-3,3M506,443l-5,-21m4,2l-4,-2l-2,4M511,413l-15,-26m4,1l-4,-1l-1,4M508,381l-9,-26m4,2l-4,-2l-2,4M512,342l-16,-11m4,-1l-4,1l1,4M506,300l-5,9m-1,-4l1,4l4,-1M510,261l-13,22m-1,-4l1,4l4,-1M509,226l-11,27m-2,-4l2,4l4,-2M507,194l-5,27m-2,-3l2,3l3,-2M505,167l-3,19m-2,-3l2,3l3,-2M505,139l-1,10m-3,-3l3,3l3,-3M505,109l-2,6m-2,-4l2,4l4,-2M504,79v1M504,16v1M552,561v-2M553,530l-3,-4M554,501l-5,-10m4,1l-4,-1l-1,4M556,472l-7,-16m4,2l-4,-2l-2,4M558,442l-12,-20m4,1l-4,-1l-1,4M563,411l-21,-23m4,0h-4v4M565,378l-26,-20m4,-1l-4,1l1,4M570,341l-36,-10m4,-2l-4,2l2,4M573,300l-41,8m2,-4l-2,4l4,2M568,260l-32,24m1,-4l-1,4l4,1M566,229l-28,23m0,-4v4h4M560,198l-15,20m-1,-4l1,4l4,-1M556,168l-8,16m-1,-4l1,4l4,-1M555,139l-6,9m-1,-4l1,4l4,-1M552,110l-1,3M552,79v1M552,48v1M600,624v-1M600,592v-1M600,529l-1,-2M602,500l-4,-8m4,1l-4,-1l-1,4M605,471l-11,-13m4,0h-4v4M608,438l-16,-12m4,-1l-4,1l1,4M613,408l-27,-16m4,-1l-4,1l1,4M618,376l-36,-16m4,-2l-4,2l2,4M620,337l-41,-1m3,-3l-3,3l3,3M623,301l-46,7m3,-3l-3,3l3,3M617,265l-34,14m2,-4l-2,4l4,2M611,232l-22,16m1,-4l-1,4l4,1M608,201l-16,13m0,-4v4h4M604,170l-8,12m-1,-4l1,4l4,-1M602,141l-3,6m-1,-4l1,4l4,-1M600,111v1M600,79l-1,1M600,48v1M648,561l-1,-1M648,529l1,-2M648,498l-1,-3M652,468l-7,-8m4,0h-4v4M657,437l-17,-9m4,-1l-4,1l1,4M658,405l-20,-9m4,-2l-4,2l2,4M663,373l-31,-10m4,-2l-4,2l2,4M667,338l-38,-4m3,-3l-3,3l3,3M665,302l-34,4m3,-3l-3,3l3,3M663,268l-29,8m2,-4l-2,4l4,2M658,235l-19,11m1,-4l-1,4l4,1M655,203l-15,10m1,-4l-1,4l4,1M651,172l-7,7m0,-4v4h4M648,142l-1,4M649,111l-1,2M648,79l-1,1M696,561v-1M695,529l3,-2M692,497l9,-2m-2,4l2,-4l-4,-2M693,465l7,-3m-2,4l2,-4l-4,-2M700,434l-8,-4m4,-1l-4,1l1,4M703,404l-14,-7m4,-1l-4,1l1,4M706,370l-21,-5m4,-2l-4,2l2,4M710,335l-28,1m3,-3l-3,3l3,3M710,303l-28,1m3,-3l-3,3l3,3M707,270l-22,3m3,-3l-3,3l3,3M704,237l-17,6m2,-4l-2,4l4,2M701,205l-11,5m1,-4l-1,4l4,1M699,174l-6,3m1,-4l-1,4l4,1M697,143l-2,2M697,111l-2,1M744,592v-1M743,562l1,-3M739,532l10,-7m-1,4l1,-4l-4,-1M731,499l25,-6m-2,4l2,-4l-4,-2M732,462l24,3m-3,3l3,-3l-3,-3M742,429l5,5M748,400h-8m3,-3l-3,3l3,3M752,368l-16,-1m3,-3l-3,3l3,3M752,336l-15,1m3,-3l-3,3l3,3M750,304h-13m3,-3l-3,3l3,3M751,272h-14m3,-3l-3,3l3,3M748,238l-8,3m2,-4l-2,4l4,2M747,207l-6,3m1,-4l-1,4l4,1M745,175l-3,1M745,143l-2,1M744,112v1M792,593v-1M791,564l2,-8m2,4l-2,-4l-4,2M786,537l11,-18m1,4l-1,-4l-4,1M778,502l28,-12m-2,4l2,-4l-4,-2M779,458l26,11m-4,2l4,-2l-2,-4M787,423l9,17m-4,-1l4,1l1,-4M793,397l-3,7m-2,-4l2,4l4,-2M795,368l-7,1m3,-3l-3,3l3,3M795,336l-6,-1m3,-2l-3,2l2,3M795,304h-6m3,-3l-3,3l3,3M796,272h-7m3,-3l-3,3l3,3M795,240h-6m3,-3l-3,3l3,3M793,207l-3,1M793,176l-2,1M793,144h-1M840,593v-2M840,565v-11m3,3l-3,-3l-3,3M840,540l1,-24m3,3l-3,-3l-3,3M840,504l-1,-16m3,3l-3,-3l-3,3M840,456l-1,15m-3,-3l3,3l3,-3M841,420l-1,24m-3,-3l3,3l3,-3M841,395l-2,10m-2,-4l2,4l4,-2M841,367l-1,2M841,336h-2M841,304h-3M841,272h-1M841,240h-3M841,208h-2M840,176h-1M840,144h-1M888,593v-1M889,564l-2,-8m4,2l-4,-2l-2,4M894,537l-12,-18m4,1l-4,-1l-1,4M902,501l-28,-11m4,-2l-4,2l2,4M902,458l-28,12m2,-4l-2,4l4,2M894,423l-12,18m-1,-4l1,4l4,-1M889,396l-3,7m-2,-4l2,4l4,-2M889,368l-1,1M888,336h-1M888,304h-1M888,272h-1M888,240l-1,1M937,561l-2,-3M944,532l-16,-7m4,-2l-4,2l2,4M953,498l-34,-5m3,-3l-3,3l3,3M953,462l-33,5m3,-3l-3,3l3,3M942,428l-13,7m1,-4l-1,4l4,1M937,398l-2,3M937,368h-1M936,336h-1M937,304h-1M937,272h-2" style="fill: none; stroke: #000099; stroke-width: 1;"></path>
    </g>
   </svg>
   <g>
    <g transform="translate(0,640)">
     <path d="M0,0h960M0,-24V0M24,-12V0M48,-12V0M72,-12V0M96,-12V0M120,-24V0M144,-12V0M168,-12V0M192,-12V0M216,-12V0M240,-24V0M264,-12V0M288,-12V0M312,-12V0M336,-12V0M360,-24V0M384,-12V0M408,-12V0M432,-12V0M456,-12V0M480,-24V0M504,-12V0M528,-12V0M552,-12V0M576,-12V0M600,-24V0M624,-12V0M648,-12V0M672,-12V0M696,-12V0M720,-24V0M744,-12V0M768,-12V0M792,-12V0M816,-12V0M840,-24V0M864,-12V0M888,-12V0M912,-12V0M936,-12V0M960,-24V0" style="stroke: black; stroke-width: 1;"></path>
     <g font-family="Arial" font-size="28" space="preserve" fill="black" text-anchor="middle">
      <text dy=".8em" transform="translate(0,6)">
       -4
      </text>
      <text dy=".8em" transform="translate(120,6)">
       -3
      </text>
      <text dy=".8em" transform="translate(240,6)">
       -2
      </text>
      <text dy=".8em" transform="translate(360,6)">
       -1
      </text>
      <text dy=".8em" transform="translate(480,6)">
       0
      </text>
      <text dy=".8em" transform="translate(600,6)">
       1
      </text>
      <text dy=".8em" transform="translate(720,6)">
       2
      </text>
      <text dy=".8em" transform="translate(840,6)">
       3
      </text>
      <text dy=".8em" transform="translate(960,6)">
       4
      </text>
     </g>
    </g>
    <g>
     <path d="M0,0v640M36,640H0M18,624H0M18,608H0M18,592H0M18,576H0M36,560H0M18,544H0M18,528H0M18,512H0M18,496H0M36,480H0M18,464H0M18,448H0M18,432H0M18,416H0M36,400H0M18,384H0M18,368H0M18,352H0M18,336H0M36,320H0M18,304H0M18,288H0M18,272H0M18,256H0M36,240H0M18,224H0M18,208H0M18,192H0M18,176H0M36,160H0M18,144H0M18,128H0M18,112H0M18,96H0M36,80H0M18,64H0M18,48H0M18,32H0M18,16H0M36,0H0" style="stroke: black; stroke-width: 1;"></path>
     <g font-family="Arial" font-size="28" space="preserve" fill="black" text-anchor="end">
      <text dy=".4em" transform="translate(-4,640)">
       -20
      </text>
      <text dy=".4em" transform="translate(-4,560)">
       -15
      </text>
      <text dy=".4em" transform="translate(-4,480)">
       -10
      </text>
      <text dy=".4em" transform="translate(-4,400)">
       -5
      </text>
      <text dy=".4em" transform="translate(-4,320)">
       0
      </text>
      <text dy=".4em" transform="translate(-4,240)">
       5
      </text>
      <text dy=".4em" transform="translate(-4,160)">
       10
      </text>
      <text dy=".4em" transform="translate(-4,80)">
       15
      </text>
      <text dy=".4em" transform="translate(-4)">
       20
      </text>
     </g>
    </g>
   </g>
  </g>
  <g transform="translate(936,52)" font-family="Arial" font-size="22" space="preserve" fill="black">
   <path d="M0,0H240V192H0Z" style="fill: white; stroke: black; stroke-width: 1;"></path>
   <text text-anchor="middle" dy=".4em" transform="translate(120,16)">
    harr
   </text>
   <text text-anchor="start" dy=".4em" transform="translate(12,48)">
    Entries
   </text>
   <text text-anchor="end" dy=".4em" transform="translate(228,48)">
    50000
   </text>
   <text text-anchor="start" dy=".4em" transform="translate(12,80)">
    Mean x
   </text>
   <text text-anchor="end" dy=".4em" transform="translate(228,80)">
    0.2623
   </text>
   <text text-anchor="start" dy=".4em" transform="translate(12,112)">
    Mean y
   </text>
   <text text-anchor="end" dy=".4em" transform="translate(228,112)">
    -0.9352
   </text>
   <text text-anchor="start" dy=".4em" transform="translate(12,144)">
    Std Dev x
   </text>
   <text text-anchor="end" dy=".4em" transform="translate(228,144)">
    1.282
   </text>
   <text text-anchor="start" dy=".4em" transform="translate(12,176)">
    Std Dev y
   </text>
   <text text-anchor="end" dy=".4em" transform="translate(228,176)">
    5.585
   </text>
   <path d="M0,32h240" style="stroke: black; stroke-width: 1;"></path>
  </g>
  <g transform="translate(372,4)" font-family="Arial" font-size="37" space="preserve">
   <text fill="black" text-anchor="middle" dy=".4em" transform="translate(229,26)">
    Option ARRow example
   </text>
  </g>
 </g>
</svg>
